design-library/src/public/images/icons/icn_trust_chicago.svg

<svg xmlns="http://www.w3.org/2000/svg" width="22" height="22" viewBox="0 0 22 22">
    <g fill="none" fill-rule="evenodd">
        <g fill="#3C4FAF">
            <path fill-rule="nonzero" d="M18.48 0H3.52A3.53 3.53 0 0 0 0 3.52v14.96A3.53 3.53 0 0 0 3.52 22h14.96A3.53 3.53 0 0 0 22 18.48V3.52A3.53 3.53 0 0 0 18.48 0zm2.2 18.48c0 1.21-.99 2.2-2.2 2.2H3.52c-1.21 0-2.2-.99-2.2-2.2V3.52c0-1.21.99-2.2 2.2-2.2h14.96c1.21 0 2.2.99 2.2 2.2v14.96z"/>
            <path d="M13.178 16.896H8.844a.15.15 0 0 1-.154-.154V9.35a.197.197 0 0 0-.198-.198H4.62a.15.15 0 0 1-.154-.154V5.192a.15.15 0 0 1 .154-.154h12.76a.15.15 0 0 1 .154.154V9.02a.15.15 0 0 1-.154.154h-3.894a.15.15 0 0 0-.154.154v7.414a.15.15 0 0 1-.154.154z"/>
        </g>
        <path d="M-1-1h24v24H-1z"/>
    </g>
</svg>

<?xml version="1.0" encoding="UTF-8"?>
<svg width="24px" height="24px" viewBox="0 0 24 24" version="1.1" xmlns="http://www.w3.org/2000/svg" xmlns:xlink="http://www.w3.org/1999/xlink">
    <!-- Generator: Sketch 57.1 (83088) - https://sketch.com -->
    <title>trust-project</title>
    <desc>Created with Sketch.</desc>
    <g id="trust-project" stroke="none" stroke-width="1" fill="none" fill-rule="evenodd">
        <g>
            <g id="Trust-project" transform="translate(1.000000, 1.000000)" fill="#3C4FAF">
                <path d="M18.48,0 L3.52,0 C1.584,0 0,1.584 0,3.52 L0,18.48 C0,20.416 1.584,22 3.52,22 L18.48,22 C20.416,22 22,20.416 22,18.48 L22,3.52 C22,1.584 20.416,0 18.48,0 Z M20.68,18.48 C20.68,19.69 19.69,20.68 18.48,20.68 L3.52,20.68 C2.31,20.68 1.32,19.69 1.32,18.48 L1.32,3.52 C1.32,2.31 2.31,1.32 3.52,1.32 L18.48,1.32 C19.69,1.32 20.68,2.31 20.68,3.52 L20.68,18.48 Z" id="Shape" fill-rule="nonzero"></path>
                <path d="M13.178,16.896 L8.844,16.896 C8.756,16.896 8.69,16.83 8.69,16.742 L8.69,9.35 C8.69,9.24 8.602,9.152 8.492,9.152 L4.62,9.152 C4.532,9.152 4.466,9.086 4.466,8.998 L4.466,5.192 C4.466,5.104 4.532,5.038 4.62,5.038 L17.38,5.038 C17.468,5.038 17.534,5.104 17.534,5.192 L17.534,9.02 C17.534,9.108 17.468,9.174 17.38,9.174 L13.486,9.174 C13.398,9.174 13.332,9.24 13.332,9.328 L13.332,16.742 C13.332,16.83 13.266,16.896 13.178,16.896 Z" id="SVGID_1_"></path>
            </g>
            <polygon id="Shape" points="0 0 24 0 24 24 0 24"></polygon>
        </g>
    </g>
</svg>
